X:1
T:Mi-mi-mishki
Z:www.realbook.site
L:1/16
M:4/4
I:linebreak $
K:C
V:1 treble nm=" " snm=" "
V:1
"C""^Intro" B3B3B2"F" B3B3B2 |"Am" B3B3B2"F/C" B3B3"F"B2 ||$"C" E2E2E2G2"F" FE2D- D2CD | %3
"Am" ED2C- C2<E2"F" ed2c- c2<A2 |$"Am" C2C2C2E2"F" DC2D- D2CC |"G" DC2B,- B,2<C2"C" dc2B- B2<c2 ||$ %6
"C" E2E2E2G2"F" FE2D- D2CD |"Am" ED2C- C2<E2"G" ed2c- c2<A2 |$"Am" C2C2C2E2"F" DC2D- D4 | %9
"G" D2C2 DC2C"C" z C3 z4 |"F" E2C2"G" GG2C"C" z C3 z4 |] %11

